packages/core/src/svgs/olt.svg

<svg width="24" height="24" viewBox="0 0 24 24" fill="none" xmlns="http://www.w3.org/2000/svg">
<g clip-path="url(#clip0_31_15341)">
<path d="M0 0H24V24H0V0Z" fill="#F0F3FA"/>
<path d="M8.78577 5.14307L11.5693 6.75021V9.96449L8.78577 11.5716L6.0022 9.96449V6.75021L8.78577 5.14307Z" fill="#008D9F"/>
<path d="M8.78577 12.4288L11.5693 14.0359V17.2502L8.78577 18.8574L6.0022 17.2502V14.0359L8.78577 12.4288ZM15.2143 5.14307L17.9979 6.75021V9.9645L15.2143 11.5716L12.4308 9.9645V6.75021L15.2143 5.14307Z" fill="#00F1D0"/>
<path d="M15.2142 12.4287L17.9978 14.0359V17.2501L15.2142 18.8573L12.4307 17.2501V14.0359L15.2142 12.4287Z" fill="#008D9F"/>
</g>
<defs>
<clipPath id="clip0_31_15341">
<rect width="24" height="24" fill="white"/>
</clipPath>
</defs>
</svg>

<svg xmlns="http://www.w3.org/2000/svg" width="24" height="24" fill="none" viewBox="0 0 24 24"><g clip-path="url(#a)"><path fill="#F0F3FA" d="M0 0h24v24H0z"/><path fill="#008D9F" d="m8.786 5.143 2.783 1.607v3.214l-2.783 1.608-2.784-1.608V6.75z"/><path fill="#00F1D0" d="m8.786 12.429 2.783 1.607v3.214l-2.783 1.607-2.784-1.607v-3.214zm6.428-7.286 2.784 1.607v3.214l-2.784 1.608-2.783-1.607V6.75z"/><path fill="#008D9F" d="m15.214 12.429 2.784 1.607v3.214l-2.784 1.607-2.783-1.607v-3.214z"/></g><defs><clipPath id="a"><path fill="#fff" d="M0 0h24v24H0z"/></clipPath></defs></svg>
